img/headerServices/5.svg

<svg width="46" height="46" viewBox="0 0 46 46" fill="none" xmlns="http://www.w3.org/2000/svg">
<path d="M30.0388 33.6841H17.8328C17.617 33.6841 17.41 33.773 17.2574 33.9313C17.1048 34.0896 17.019 34.3042 17.019 34.5281V44.6559C17.019 44.8797 17.1048 45.0944 17.2574 45.2527C17.41 45.411 17.617 45.4999 17.8328 45.4999H30.0388C30.2546 45.4999 30.4616 45.411 30.6142 45.2527C30.7668 45.0944 30.8526 44.8797 30.8526 44.6559V34.5281C30.8526 34.3042 30.7668 34.0896 30.6142 33.9313C30.4616 33.773 30.2546 33.6841 30.0388 33.6841ZM29.2251 43.8119H18.6465V35.3721H23.1221V36.216C23.1221 36.4399 23.2078 36.6545 23.3604 36.8128C23.513 36.9711 23.72 37.06 23.9358 37.06C24.1516 37.06 24.3586 36.9711 24.5112 36.8128C24.6638 36.6545 24.7495 36.4399 24.7495 36.216V35.3721H29.2251V43.8119Z" fill="#4D7B7D"/>
<path d="M44.6863 33.6841H32.4802C32.2644 33.6841 32.0574 33.773 31.9048 33.9313C31.7522 34.0896 31.6665 34.3042 31.6665 34.5281V44.6559C31.6665 44.8797 31.7522 45.0944 31.9048 45.2527C32.0574 45.411 32.2644 45.4999 32.4802 45.4999H44.6863C44.9021 45.4999 45.1091 45.411 45.2617 45.2527C45.4143 45.0944 45.5 44.8797 45.5 44.6559V34.5281C45.5 34.3042 45.4143 34.0896 45.2617 33.9313C45.1091 33.773 44.9021 33.6841 44.6863 33.6841ZM43.8726 43.8119H33.294V35.3721H37.7695V36.216C37.7695 36.4399 37.8553 36.6545 38.0079 36.8128C38.1605 36.9711 38.3674 37.06 38.5833 37.06C38.7991 37.06 39.0061 36.9711 39.1587 36.8128C39.3113 36.6545 39.397 36.4399 39.397 36.216V35.3721H43.8726V43.8119Z" fill="#4D7B7D"/>
<path d="M44.6863 21.0244H32.4802C32.2644 21.0244 32.0574 21.1133 31.9048 21.2716C31.7522 21.4299 31.6665 21.6446 31.6665 21.8684V31.9962C31.6665 32.2201 31.7522 32.4347 31.9048 32.593C32.0574 32.7513 32.2644 32.8402 32.4802 32.8402H44.6863C44.9021 32.8402 45.1091 32.7513 45.2617 32.593C45.4143 32.4347 45.5 32.2201 45.5 31.9962V21.8684C45.5 21.6446 45.4143 21.4299 45.2617 21.2716C45.1091 21.1133 44.9021 21.0244 44.6863 21.0244ZM43.8726 31.1522H33.294V22.7124H37.7695V23.5564C37.7695 23.7802 37.8553 23.9949 38.0079 24.1532C38.1605 24.3114 38.3674 24.4004 38.5833 24.4004C38.7991 24.4004 39.0061 24.3114 39.1587 24.1532C39.3113 23.9949 39.397 23.7802 39.397 23.5564V22.7124H43.8726V31.1522Z" fill="#4D7B7D"/>
<path d="M32.3744 19.3111C32.4783 19.2827 32.5758 19.2333 32.6611 19.1656C32.7465 19.098 32.8181 19.0135 32.8718 18.9169C32.9256 18.8204 32.9603 18.7138 32.9741 18.6033C32.9879 18.4928 32.9804 18.3806 32.9522 18.273L32.2361 15.4963L34.6773 13.361L34.7424 13.302C36.3686 11.5264 37.5846 9.39085 38.2984 7.05648C38.8616 5.20834 39.0959 3.26938 38.9901 1.33426C38.9789 1.13049 38.8969 0.93783 38.7592 0.791965C38.6216 0.6461 38.4376 0.55691 38.2415 0.540913C36.4021 0.402232 34.5538 0.616821 32.7894 1.1739C30.4708 1.9233 28.3587 3.23709 26.6294 5.00559L24.5626 7.53755L19.7452 6.17873C19.8968 6.0206 19.9819 5.80669 19.9819 5.58372C19.9819 5.36076 19.8968 5.14685 19.7452 4.98871C19.6696 4.90961 19.5796 4.84682 19.4804 4.80397C19.3813 4.76113 19.2749 4.73907 19.1675 4.73907C19.0601 4.73907 18.9537 4.76113 18.8545 4.80397C18.7554 4.84682 18.6654 4.90961 18.5897 4.98871L18.0201 5.5795C17.9876 5.62251 17.9577 5.66761 17.9306 5.71454L14.2688 4.69332L14.5617 4.38949C14.638 4.31103 14.6985 4.21768 14.7399 4.11483C14.7812 4.01199 14.8024 3.90167 14.8024 3.79026C14.8024 3.67884 14.7812 3.56853 14.7399 3.46568C14.6985 3.36283 14.638 3.26949 14.5617 3.19103C14.4093 3.03383 14.203 2.9456 13.9881 2.9456C13.7731 2.9456 13.5668 3.03383 13.4144 3.19103L12.4216 4.17005L5.41534 2.22888C5.24225 2.1793 5.0582 2.19049 4.89188 2.26071C4.72556 2.33093 4.58631 2.45624 4.49582 2.61712L2.59981 6.11966C2.54488 6.21518 2.50869 6.32102 2.49333 6.4311C2.47796 6.54118 2.48373 6.65333 2.5103 6.76108C2.53904 6.86957 2.58839 6.971 2.65547 7.05941C2.72255 7.14782 2.80599 7.22143 2.90089 7.27591L17.6132 15.969L9.47588 25.8436L2.52658 25.0756C2.3806 25.0596 2.2332 25.085 2.09997 25.1489C1.96674 25.2127 1.85266 25.3128 1.7698 25.4385L0.638706 27.1433C0.571947 27.2462 0.527857 27.363 0.509573 27.4856C0.49129 27.6081 0.499261 27.7333 0.532921 27.8523C0.565055 27.9707 0.621763 28.0804 0.699074 28.1737C0.776384 28.267 0.872427 28.3417 0.980476 28.3924L7.0835 31.2198L9.38637 33.6082L12.1124 39.9381C12.1613 40.0502 12.2333 40.1498 12.3233 40.23C12.4132 40.3102 12.519 40.369 12.6332 40.4023C12.7059 40.4146 12.7801 40.4146 12.8529 40.4023C13.0175 40.4014 13.1785 40.3516 13.3167 40.2589L15.0012 39.0688C15.1236 38.9822 15.2209 38.8625 15.2826 38.7227C15.3443 38.5829 15.3679 38.4282 15.3511 38.2755L14.6106 31.0847L22.4468 24.1387L24.1231 22.6533L28.5173 30.6543C28.5705 30.751 28.6416 30.8359 28.7265 30.904C28.8114 30.9721 28.9084 31.0221 29.0121 31.0511C29.1157 31.0801 29.2238 31.0876 29.3302 31.0731C29.4367 31.0586 29.5393 31.0224 29.6321 30.9666C29.8183 30.8552 29.9544 30.6721 30.0108 30.457C30.0672 30.242 30.0393 30.0126 29.9332 29.8188L25.3844 21.5646L30.8609 16.7117L31.3817 18.7119C31.4371 18.9277 31.5726 19.1119 31.7587 19.2242C31.9448 19.3365 32.1662 19.3678 32.3744 19.3111ZM4.41444 6.18717L5.62691 4.02657L23.3664 8.93857L18.6874 14.627L4.41444 6.18717ZM30.7876 14.5595L23.8139 20.729L21.3727 22.8812L13.2353 30.1226C13.1351 30.2124 13.0575 30.3262 13.0093 30.4542C12.9611 30.5821 12.9437 30.7204 12.9587 30.8569L13.691 37.9885L13.2109 38.3261L10.7941 32.7727C10.7527 32.6781 10.6948 32.5923 10.6233 32.5195L8.10881 29.9116C8.0404 29.8413 7.9605 29.7841 7.87282 29.7428L2.53471 27.2615L2.86021 26.7635L9.74442 27.5231C9.87603 27.5387 10.0093 27.5206 10.1327 27.4706C10.2561 27.4206 10.3658 27.3401 10.4524 27.2362L25.4414 8.99764L27.7687 6.17873C29.2973 4.61864 31.164 3.46103 33.2126 2.80279C34.5478 2.37353 35.9406 2.16839 37.3382 2.19512C37.3449 3.67548 37.128 5.14778 36.6954 6.55853C36.0735 8.62724 35.008 10.523 33.5788 12.1035L30.7876 14.5595Z" fill="#4D7B7D"/>
<path d="M29.567 11.4876L20.9333 19.2438C20.7779 19.3926 20.6845 19.5982 20.6728 19.8172C20.6611 20.0362 20.732 20.2514 20.8706 20.417C21.0092 20.5827 21.2045 20.6859 21.4152 20.7048C21.6259 20.7237 21.8354 20.6568 21.9993 20.5182L30.633 12.762C30.7884 12.6132 30.8819 12.4076 30.8936 12.1886C30.9053 11.9696 30.8343 11.7544 30.6958 11.5888C30.5572 11.4231 30.3619 11.3199 30.1512 11.301C29.9405 11.2821 29.731 11.349 29.567 11.4876Z" fill="#4D7B7D"/>
<path d="M12.2832 27.0252L10.6557 28.7132C10.5041 28.8713 10.4191 29.0852 10.4191 29.3082C10.4191 29.5312 10.5041 29.7451 10.6557 29.9032C10.8059 30.0622 11.0107 30.1532 11.2253 30.1564C11.333 30.1559 11.4395 30.1333 11.5387 30.0898C11.6378 30.0464 11.7277 29.9829 11.8031 29.9032L13.4305 28.2152C13.5638 28.0538 13.6335 27.8461 13.6256 27.6337C13.6177 27.4213 13.5328 27.2198 13.3879 27.0695C13.2429 26.9192 13.0487 26.8311 12.8439 26.8229C12.6391 26.8147 12.4388 26.8869 12.2832 27.0252Z" fill="#4D7B7D"/>
</svg>

<svg width="46" height="46" fill="none" xmlns="http://www.w3.org/2000/svg"><path d="M30.039 33.684H17.833a.8.8 0 0 0-.576.247.86.86 0 0 0-.238.597v10.128a.86.86 0 0 0 .238.597.8.8 0 0 0 .576.247h12.206a.8.8 0 0 0 .575-.247.86.86 0 0 0 .239-.597V34.528a.86.86 0 0 0-.239-.597.8.8 0 0 0-.575-.247Zm-.814 10.128H18.646v-8.44h4.476v.844a.86.86 0 0 0 .238.597.8.8 0 0 0 .576.247.8.8 0 0 0 .575-.247.86.86 0 0 0 .239-.597v-.844h4.475v8.44Zm15.461-10.128H32.48a.8.8 0 0 0-.575.247.86.86 0 0 0-.239.597v10.128a.86.86 0 0 0 .239.597.8.8 0 0 0 .575.247h12.206a.8.8 0 0 0 .576-.247.86.86 0 0 0 .238-.597V34.528a.86.86 0 0 0-.238-.597.8.8 0 0 0-.576-.247Zm-.813 10.128H33.294v-8.44h4.476v.844a.86.86 0 0 0 .238.597.8.8 0 0 0 .575.247.8.8 0 0 0 .576-.247.86.86 0 0 0 .238-.597v-.844h4.476v8.44Zm.813-22.788H32.48a.8.8 0 0 0-.575.248.86.86 0 0 0-.239.596v10.128a.86.86 0 0 0 .239.597.8.8 0 0 0 .575.247h12.206a.8.8 0 0 0 .576-.247.86.86 0 0 0 .238-.597V21.868a.86.86 0 0 0-.238-.596.8.8 0 0 0-.576-.248Zm-.813 10.128H33.294v-8.44h4.476v.844a.86.86 0 0 0 .238.597.8.8 0 0 0 .575.247.8.8 0 0 0 .576-.247.86.86 0 0 0 .238-.597v-.844h4.476v8.44Z" fill="#4D7B7D"/><path d="M32.374 19.311a.833.833 0 0 0 .497-.394.864.864 0 0 0 .081-.644l-.716-2.777 2.441-2.135.065-.059a16.3 16.3 0 0 0 3.556-6.246c.564-1.848.798-3.787.692-5.722a.859.859 0 0 0-.23-.542.802.802 0 0 0-.518-.251 14.482 14.482 0 0 0-5.453.633 15.13 15.13 0 0 0-6.16 3.832l-2.066 2.532-4.818-1.36a.86.86 0 0 0 .237-.594.86.86 0 0 0-.237-.595.812.812 0 0 0-.578-.25.79.79 0 0 0-.577.25l-.57.59a1.314 1.314 0 0 0-.09.136l-3.66-1.022.293-.304a.848.848 0 0 0 .24-.599.871.871 0 0 0-.24-.599.799.799 0 0 0-.574-.245.799.799 0 0 0-.574.245l-.992.979-7.007-1.941a.787.787 0 0 0-.523.032.823.823 0 0 0-.396.356L2.6 6.12a.865.865 0 0 0-.09.641.852.852 0 0 0 .391.515l14.712 8.693-8.137 9.875-6.95-.768a.787.787 0 0 0-.426.073.821.821 0 0 0-.33.29L.639 27.143a.863.863 0 0 0-.106.71.854.854 0 0 0 .166.32.816.816 0 0 0 .281.22l6.103 2.827 2.303 2.388 2.726 6.33c.05.112.121.212.211.292.09.08.196.139.31.172a.659.659 0 0 0 .22 0 .84.84 0 0 0 .464-.143L15 39.069a.837.837 0 0 0 .282-.346.873.873 0 0 0 .068-.447l-.74-7.191 7.836-6.946 1.676-1.486 4.394 8.001a.837.837 0 0 0 .21.25.801.801 0 0 0 .603.17.793.793 0 0 0 .302-.107.84.84 0 0 0 .379-.51.871.871 0 0 0-.078-.638l-4.549-8.254 5.477-4.853.52 2c.056.216.192.4.378.512a.788.788 0 0 0 .615.087ZM4.414 6.187l1.213-2.16 17.74 4.912-4.68 5.688-14.273-8.44Zm26.374 8.372-6.974 6.17-2.441 2.152-8.138 7.242a.845.845 0 0 0-.226.331.873.873 0 0 0-.05.403l.732 7.132-.48.337-2.417-5.553a.844.844 0 0 0-.17-.254l-2.515-2.607a.813.813 0 0 0-.236-.17l-5.338-2.48.325-.498 6.884.76a.786.786 0 0 0 .389-.053.815.815 0 0 0 .32-.235L25.44 8.998l2.328-2.82a13.34 13.34 0 0 1 5.444-3.375 12.682 12.682 0 0 1 4.125-.608c.007 1.48-.21 2.953-.643 4.364a14.479 14.479 0 0 1-3.116 5.545l-2.791 2.456Z" fill="#4D7B7D"/><path d="m29.567 11.488-8.634 7.756a.864.864 0 0 0-.063 1.173.794.794 0 0 0 1.129.101l8.634-7.756a.864.864 0 0 0 .063-1.173.794.794 0 0 0-1.129-.101ZM12.283 27.025l-1.627 1.688a.86.86 0 0 0-.237.595.86.86 0 0 0 .237.595.8.8 0 0 0 .57.253.789.789 0 0 0 .577-.253l1.627-1.688a.864.864 0 0 0-.042-1.145.796.796 0 0 0-1.105-.044Z" fill="#4D7B7D"/></svg>
